src/assets/pagui-vector-1.svg

<svg width="351" height="351" viewBox="0 0 351 351" fill="none" xmlns="http://www.w3.org/2000/svg">
<path d="M174.936 0.128285L87.436 0.19236L87.5001 87.6923L175 87.6283L174.936 0.128285Z" fill="#FFFCFA"/>
<path d="M87.5001 87.6923L0 87.7563L0.0640756 175.256L87.5641 175.192L87.5001 87.6923Z" fill="#F18B94" fill-opacity="0.56"/>
<path d="M0 87.7563L87.5001 87.6923L0.0640756 175.256L0 87.7563Z" fill="#FFFDFD"/>
<path d="M87.5001 87.6923L175 87.6283L175.064 175.128L87.5001 87.6923Z" fill="#6077AD" fill-opacity="0.63"/>
<path d="M349.936 0L174.936 0.128285L175.064 175.128L350.064 175L349.936 0Z" fill="white"/>
<path d="M262.436 0.0640756L174.936 0.128285L175 87.6283L262.5 87.5641L262.436 0.0640756Z" fill="#BC839C"/>
<path d="M175 87.6283C198.207 87.6113 220.455 78.3761 236.853 61.9547C253.25 45.5332 262.453 23.2705 262.436 0.0640756L174.936 0.128285" fill="#F18B94"/>
<path d="M349.936 0L262.436 0.0640756L262.5 87.5641L350 87.5001L349.936 0Z" fill="#FFFDFC"/>
<path d="M262.5 87.5641L175 87.6283L175.064 175.128L262.564 175.064L262.5 87.5641Z" fill="#6077AD"/>
<path d="M175.064 175.128L0.0640756 175.256L0.19236 350.256L175.192 350.128L175.064 175.128Z" fill="white"/>
<path d="M87.5641 175.192L0.0640756 175.256L0.128285 262.756L87.6283 262.692L87.5641 175.192Z" fill="#F18B94"/>
<path d="M87.6283 262.692C110.835 262.675 133.084 253.44 149.481 237.019C165.878 220.597 175.081 198.335 175.064 175.128L87.5641 175.192" fill="#F18B94" fill-opacity="0.44"/>
<path d="M87.6283 262.692L0.128285 262.756L0.19236 350.256L87.6922 350.192L87.6283 262.692Z" fill="#F18B94" fill-opacity="0.33"/>
<path d="M175.128 262.628L87.6283 262.692L87.6922 350.192L175.192 350.128L175.128 262.628Z" fill="#FEF2EC"/>
<path d="M87.6283 262.692C110.835 262.675 133.097 271.878 149.519 288.275C165.94 304.672 175.175 326.922 175.192 350.128L87.6922 350.192" fill="#FCE6DB"/>
<path d="M350.064 175L175.064 175.128L175.192 350.128L350.192 350L350.064 175Z" fill="white"/>
<path d="M262.564 175.064L175.064 175.128L175.128 262.628L262.628 262.564L262.564 175.064Z" fill="#FEF7F3"/>
<path d="M350.064 175L262.564 175.064L262.628 262.564L350.128 262.5L350.064 175Z" fill="#6077AD"/>
<path d="M262.692 350.064C262.675 326.858 271.878 304.595 288.275 288.174C304.673 271.752 326.922 262.517 350.128 262.5L350.192 350" fill="#F18B94"/>
</svg>

<svg xmlns="http://www.w3.org/2000/svg" width="351" height="351" fill="none" xmlns:v="https://vecta.io/nano"><use href="#B" fill="#fffcfa"/><path d="M87.5 87.692L0 87.756l.064 87.5 87.5-.064-.064-87.5z" fill="#f18b94" fill-opacity=".56"/><path d="M0 87.756l87.5-.064L.064 175.256 0 87.756z" fill="#fffdfd"/><path d="M87.5 87.692l87.5-.064.064 87.5L87.5 87.692z" fill="#6077ad" fill-opacity=".63"/><use href="#C" fill="#fff"/><use href="#B" x="87.5" y="-0.064" fill="#bc839c"/><path d="M175 87.628a87.5 87.5 0 0 0 61.853-25.674A87.5 87.5 0 0 0 262.436.064l-87.5.064" fill="#f18b94"/><path d="M349.936 0l-87.5.064.064 87.5L350 87.5 349.936 0z" fill="#fffdfc"/><use href="#B" x="87.564" y="87.436" fill="#6077ad"/><use href="#C" x="-174.872" y="175.128" fill="#fff"/><g fill="#f18b94"><use href="#B" x="-87.372" y="175.064"/><path d="M87.628 262.692a87.5 87.5 0 0 0 61.853-25.673c16.397-16.422 25.6-38.684 25.583-61.891l-87.5.064" fill-opacity=".44"/><use href="#B" x="-87.308" y="262.564" fill-opacity=".33"/></g><use href="#B" x="0.192" y="262.5" fill="#fef2ec"/><path d="M87.628 262.692c23.207-.017 45.469 9.186 61.891 25.583a87.5 87.5 0 0 1 25.673 61.853l-87.5.064" fill="#fce6db"/><use href="#C" x="0.128" y="175" fill="#fff"/><use href="#B" x="87.628" y="174.936" fill="#fef7f3"/><use href="#B" x="175.128" y="174.872" fill="#6077ad"/><path d="M262.692 350.064a87.5 87.5 0 0 1 87.436-87.564l.064 87.5" fill="#f18b94"/><defs ><path id="B" d="M174.936.128l-87.5.064.064 87.5 87.5-.064-.064-87.5z"/><path id="C" d="M349.936 0l-175 .128.128 175 175-.128-.128-175z"/></defs></svg>
